static/assets/img/icons/theme/media/media-library-3.svg

<svg height="24" viewBox="0 0 24 24" width="24" xmlns="http://www.w3.org/2000/svg"><g fill="none" fill-rule="evenodd"><path d="m0 0h24v24h-24z" opacity="0"/><path d="m10.8333333 19c-1.01252201 0-1.8333333-.6840094-1.8333333-1.5277778 0-.8437683.82081129-1.5277778 1.8333333-1.5277778.2142772 0 .4199685.0306341.6111111.0869335v-4.2397768c0-.3133603.1954218-.5903607.482436-.6838282l3.5138889-1.074661c.4427023-.14416814.892564.2004886.892564.6838283v1.0746609c0 .3582204-.3354001.5869998-.6111111.6528433-.3966925.0947356-1.415211.2984393-3.0555555.6111112v4.4479658c0 .0548648-.0044493.1056623-.0131263.1524655-.1089167.757122-.8823164 1.3440131-1.8202071 1.3440131z" fill="#000"/></g></svg>

<svg width="24px" height="24px" viewBox="0 0 24 24" version="1.1" xmlns="http://www.w3.org/2000/svg" xmlns:xlink="http://www.w3.org/1999/xlink">
    <title>Icon For Media-library#3</title>
    <defs>
        <path d="M19,5 L9,5 C8.44771525,5 8,5.44771525 8,6 C8,6.55228475 8.44771525,7 9,7 L19,7 L19,20.25 C19,20.6642136 18.6865993,21 18.3,21 L7.45,21 C6.09690236,21 5,19.8247475 5,18.375 L5,5.625 C5,4.17525253 6.09690236,3 7.45,3 L18.3,3 C18.6865993,3 19,3.33578644 19,3.75 L19,5 Z"></path>
    </defs>
    <g stroke="none" stroke-width="1" fill="none" fill-rule="evenodd">
        <rect opacity="0" x="0" y="0" width="24" height="24"></rect>
        <mask fill="white">
            <use xlink:href="#path-1"></use>
        </mask>
        <use fill="#000000" fill-rule="nonzero" opacity="0.3" xlink:href="#path-1"></use>
        <path d="M10.8333333,19 C9.82081129,19 9,18.3159906 9,17.4722222 C9,16.6284539 9.82081129,15.9444444 10.8333333,15.9444444 C11.0476105,15.9444444 11.2533018,15.9750785 11.4444444,16.0313779 L11.4444444,11.7916011 C11.4444444,11.4782408 11.6398662,11.2012404 11.9268804,11.1077729 L15.4407693,10.0331119 C15.8834716,9.88894376 16.3333333,10.2336005 16.3333333,10.7169402 L16.3333333,11.7916011 C16.3333333,12.1498215 15.9979332,12.3786009 15.7222222,12.4444444 C15.3255297,12.53918 14.3070112,12.7428837 12.6666667,13.0555556 L12.6666667,17.5035214 C12.6666667,17.5583862 12.6622174,17.6091837 12.6535404,17.6559869 C12.5446237,18.4131089 11.771224,19 10.8333333,19 Z" fill="#000000" mask="url(#mask-2)"></path>
    </g>
</svg>
